X:545
T:Dance from Hessen
C:anon.
O:Germany
Z:Transcribed by Frank Nordberg - http://www.musicaviva.com
F:http://abc.musicaviva.com/tunes/germany/dance-from-hessen.abc
M:C
L:1/4
Q:132
K:Em
B|egf/g/a/f/|gBBA/B/|c/B/A/G/FB|GF/G/EB|egf/g/a/f/|
gBBA/B/|c/B/A/G/FB|E3::B/c/|ddde|d/c/B/A/GB/c/|
e/d/c/B/ c/B/A/G/|F/G/A/F/DB|egf/g/a/f/|gBBA/B/|c/B/A/G/FB|E3:|
W:
W:
W:  From Musica Viva - http://www.musicaviva.com
W:  the Internet center for free sheet music downloads.

